X: 214
T: Bakışı Çağırır Beni Uzaktan
C: Selahaddin Pınar
O: Turkey
F: http://compmusic.upf.edu/node/140
N: muhayyerkurdi--sarki--curcuna--bakisi_cagirir--selahaddin_pinar
N: makam= muhayyerkurdi
N: form= sarki
N: usul= curcuna = 10/8
M: 10/8
L: 1/16
K: C _B   
Q: 1/4=180
%%MIDI tuningsystem comma53
z4 g2a4a4a4_3/4b2  | c'2_2/4b2 c'2{d'}c'_b {c'}baa8-a2  | \
w:  Ba kı şı   |  ça *  *  *  ğı *  *  *  *  rır   | 
z4 b2a2 g2f2 e2g2 e2e{f}d  | 
w:  be ni  *  u *  zak  | 
d8-d2c2 B2A6  | z4 g2a4a4a4_3/4b2  | \
w:  tan   SAZ  |  Ba kı şı   | 
c'2_2/4b2 c'2{d'}c'_b {c'}baa8-a2  | \
w:  ça *  *  *  ğı *  *  *  *  rır   | 
z4 b2a2 g2f2 e2g2 e2e{f}d  | 
w:  be ni  *  u *  zak  | 
d8-d2g2 a2b6  | z4 a2b4b2 c'2a2 {b}a{b}ag2  | \
w:  tan   SAZ  |  Va rın ca   | 
g2{a}g{a}g a2a2 {b}g2f2 fef6  | 
w:  ça *  *  *  *  *  tı *  *  lır   | 
z4 e2f2 g2a2 b2ag f2{a}gf  | f14f2 e2_e2  | \
w:  kaş lar  *  ne *  den  |  dir   SAZ  | 
d4 d2d4{d}c2 B2A6  | 
w:  *  Bir  yan *  dan   | 
b6bb a2a2 g2f2 e2d2  | z4 e2f2 g2a2 {b}a{b}gf2 e2d2  | \
w:  hoş la *  *  nır   |  a zar *  la *  *  *  *  mak  | 
c8-c2c2 d2_e6  | 
w:  tan  ah    | 
z4 _e2e4e6 e{f}e{f}d2  | d2{e}c2 d2d2 c2B2 BAB6  | \
w:  Bir  yan dan   |  *  *  *  gö zün *  de   | 
d3c B2(3d2c2B2A2 c2c2 B2BA  | 
w:  yaş *  *  lar  *  *  ne *  den  | 
A8-A2.c4.d4z2  | d4 d2d4{d}c2 B2A6  | \
w:  dir   SAZ  |  *  Bir  yan *  dan   | 
b6bb a2a2 g2f2 e2d2  | z4 e2f2 g2a2 {b}a{b}gf2 e2d2  | 
w:  hoş la *  *  nır   |  a zar *  la *  *  *  *  mak  | 
c8-c2c2 d2_e6  | z4 _e2e4e6 e{f}e{f}d2  | \
w:  tan  ah    |  Bir  yan dan   | 
d2{e}c2 d2d2 c2B2 BAB6  | 
w:  *  *  *  gö zün *  de   | 
d3c B2(3d2c2B2A2 c2c2 B2BA  | A18z2  | z18  | \
w:  yaş *  *  lar  *  *  ne *  den  |  dir    |  | 
A_7/8BAB^cddcc_BBAA6  | 
w:  SAZ  | 
^c2d2{e}d2{e}c2_7/8B2BAA4z2  | d4e4e8(3^3/4fef  | \
w:  De rin *  *  *  *  dir    |  al nın da   | 
d4g4^3/4f2g2^1/4f2e2d2  | 
w:  gur bet  çiz *  gi  | 
d8^3/4f2gf/e/d6  | d2^f6g2f^ef2ffg2  | \
w:  si   SAZ  |  De ğiş mez   | 
a2a6a2g2^2/4f3ed2  | 
w:  di yor lar   | 
e2g2g2^2/4f2f2e2g2f2fe  | e6g2^3/4f2g2a6  | \
w:  bah *  tın  *  ya *  zı  |  sı   SAZ  | 
z2a4a2a4a2{b}a2g2  | 
w:  Gön lü mün   | 
g2a2a2{b}g2a2g2f2e2f2  | e2f2g2gfe2edd2c2{e}dc  | 
w:  i çin *  *  *  de   |  var  *  ki  *  *  bir  *  *  sı  | 
c8cBBAB4z2  | A2B6B4b6  | b2a2bbagfedcBAB2z2  | 
w:  zı   SAZ  |  Her_ ak şam   |  *  *  ye *  ni *  den   | 
A2B2c2d2d2c2B2A2BA  | A6g2^3/4f2g2a6  | \
w:  baş *  lar  *  ne *  den  |  dir   SAZ  | 
z2a4a2a4a2{b}a2g2  | 
w:  Gön lü mün   | 
g2a2a2{b}g2a2g2f2e2f2  | e2f2g2gfe2edd2c2{e}dc  | 
w:  i çin *  *  *  de   |  var  *  ki  *  *  bir  *  *  sı  | 
c8cBBAB4z2  | A2B6B4b6  | b2a2bbagfedcBAB2z2  | 
w:  zı   SAZ  |  Her_ ak şam   |  *  *  ye *  ni *  den   | 
A2B2c2d2d2c2B2A2BA  | A8zABcdefgag  | 
w:  baş *  lar  *  ne *  den  |  dir   SAZ  | 
z20  | z4 g2a4a4a4_3/4b2  | c'2_2/4b2 c'2{d'}c'_b {c'}baa8-a2  | \
w:  |  Ba kı şı   |  ça *  *  *  ğı *  *  *  *  rır   | 
z4 b2a2 g2f2 e2g2 e2e{f}d  | 
w:  be ni  *  u *  zak  | 
d8-d2c2 B2A6  | z4 g2a4a4a4_3/4b2  | \
w:  tan   SAZ  |  Ba kı şı   | 
c'2_2/4b2 c'2{d'}c'_b {c'}baa8-a2  | \
w:  ça *  *  *  ğı *  *  *  *  rır   | 
z4 b2a2 g2f2 e2g2 e2e{f}d  | 
w:  be ni  *  u *  zak  | 
d8-d2g2 a2b6  | z4 a2b4b2 c'2a2 {b}a{b}ag2  | \
w:  tan   SAZ  |  Va rın ca   | 
g2{a}g{a}g a2a2 {b}g2f2 fef6  | 
w:  ça *  *  *  *  *  tı *  *  lır   | 
z4 e2f2 g2a2 b2ag f2{a}gf  | f14f2 e2_e2  | \
w:  kaş lar  *  ne *  den  |  dir   SAZ  | 
d4 d2d4{d}c2 B2A6  | 
w:  *  Bir  yan *  dan   | 
b6bb a2a2 g2f2 e2d2  | z4 e2f2 g2a2 {b}a{b}gf2 e2d2  | \
w:  hoş la *  *  nır   |  a zar *  la *  *  *  *  mak  | 
c8-c2c2 d2_e6  | 
w:  tan  ah    | 
z4 _e2e4e6 e{f}e{f}d2  | d2{e}c2 d2d2 c2B2 BAB6  | \
w:  Bir  yan dan   |  *  *  *  gö zün *  de   | 
d3c B2(3d2c2B2A2 c2c2 B2BA  | 
w:  yaş *  *  lar  *  *  ne *  den  | 
A8-A2.c4.d4z2  | d4 d2d4{d}c2 B2A6  | \
w:  dir   SAZ  |  *  Bir  yan *  dan   | 
b6bb a2a2 g2f2 e2d2  | z4 e2f2 g2a2 {b}a{b}gf2 e2d2  | 
w:  hoş la *  *  nır   |  a zar *  la *  *  *  *  mak  | 
c8-c2c2 d2_e6  | z4 _e2e4e6 e{f}e{f}d2  | \
w:  tan  ah    |  Bir  yan dan   | 
d2{e}c2 d2d2 c2B2 BAB6  | 
w:  *  *  *  gö zün *  de   | 
d3c B2(3d2c2B2A2 c2c2 B2BA  | A18z2  | |


